brandFactory_export/1.Light/Refrescar recargar pagina_1Light.svg

<?xml version="1.0" encoding="UTF-8"?>
<svg width="24px" height="24px" viewBox="0 0 24 24" version="1.1" xmlns="http://www.w3.org/2000/svg" xmlns:xlink="http://www.w3.org/1999/xlink">
    <title>1.Light/Refrescar recargar pagina_1Light</title>
    <g id="Symbols" stroke="none" stroke-width="1" fill="none" fill-rule="evenodd">
        <g id="1.Light/Refrescar-recargar-pagina_1Light" fill="#5CB615" fill-rule="nonzero">
            <path d="M23.2168067,0.087394958 C22.9546218,-0.0201680672 22.6487395,0.0302521008 22.4403361,0.221848739 L19.0588235,3.42857143 C16.9848739,1.84201681 14.4134454,0.988235294 11.7680672,1.00840336 C5.81848739,0.998319328 0.803361345,5.27731092 0.087394958,10.9714286 C-0.628571429,16.6655462 3.18991597,21.9764706 8.96806723,23.3310924 C14.7462185,24.6857143 20.6655462,21.6605042 22.7462185,16.2857143 C22.8773109,15.9428571 22.6991597,15.5596639 22.3428571,15.4285714 C22.1714286,15.3647059 21.9764706,15.3680672 21.8084034,15.4420168 C21.6403361,15.5159664 21.5058824,15.6504202 21.4420168,15.8184874 C19.8722689,19.8487395 15.7983193,22.4537815 11.3378151,22.2789916 C6.87731092,22.1042017 3.03529412,19.1865546 1.81512605,15.0487395 C0.591596639,10.907563 2.26218487,6.47731092 5.95630252,4.06386555 C9.65042017,1.65042017 14.5378151,1.79159664 18.0739496,4.42016807 L14.9546218,7.38823529 C14.7495798,7.57647059 14.6857143,7.86890756 14.7932773,8.1210084 C14.9008403,8.37310924 15.1563025,8.53781513 15.4386555,8.53781513 L22.5378151,8.11092437 C22.887395,8.0907563 23.1697479,7.82184874 23.189916,7.48235294 L23.6201681,0.8 C23.6571429,0.500840336 23.4957983,0.21512605 23.2168067,0.087394958 Z" id="Path"></path>
        </g>
    </g>
</svg>

<svg width="24" height="24" viewBox="0 0 24 24" xmlns="http://www.w3.org/2000/svg"><path d="M23.217.087a.738.738 0 00-.777.135L19.06 3.429a11.857 11.857 0 00-7.29-2.42C5.818.998.802 5.276.086 10.97c-.716 5.695 3.103 11.005 8.881 12.36 5.778 1.355 11.698-1.67 13.778-7.045a.663.663 0 00-.403-.857.717.717 0 00-.535.013.682.682 0 00-.366.376c-1.57 4.03-5.644 6.636-10.104 6.461-4.46-.175-8.303-3.092-9.523-7.23-1.223-4.141.447-8.572 4.141-10.985 3.694-2.414 8.582-2.272 12.118.356l-3.12 2.968a.648.648 0 00-.16.733.7.7 0 00.645.417l7.099-.427c.35-.02.632-.29.652-.629L23.62.8a.69.69 0 00-.403-.713z" fill="#5CB615" fill-rule="nonzero"/></svg>
